!!!OTL: IM SCHWOBENLAND A BAUER WOHNT
!!!ARE: Europa, Mitteleuropa, Deutschland, Kuhlaendchen
!!!SCT: Z0154
!!!YEM: Copyright 1995, estate of Helmut Schaffrath.
**kern
*ICvox
*Ivox
*M2/4
*k[]
*a:
{8e
=1
8a
8a
8b
8b
=2
8ccn
8ccn
8gn}
{8gn
=3
8ccn
8ccn
8dd
8dd
=4
4ee
4ee
=5
4ee
8ee
8ee
=6
4.ee}
{8ccn
=7
8ee
8ee
8ee
8ee
=8
4dd
8dd}
{8ee
=9
8ccn
8a
8b
8g#
=10
4a
8a
8a
=11
4a
8r}
==
!!!AGN: Erzaehlung, lustige Romanze
!!!ONB: ESAC (Essen Associative Code) Database: ZUCCAL
!!!AMT: simple duple
!!!AIN: vox
!!!EED: Helmut Schaffrath
!!!EEV: 1.0
*-
